svgs/sharp-regular/rectangles-mixed.svg

<svg xmlns="http://www.w3.org/2000/svg" viewBox="0 0 576 512"><!--! Font Awesome Pro 6.6.0 by @fontawesome - https://fontawesome.com License - https://fontawesome.com/license (Commercial License) Copyright 2024 Fonticons, Inc. --><path d="M272 80l0 128L48 208 48 80l224 0zM48 32L0 32 0 80 0 208l0 48 48 0 224 0 48 0 0-48 0-128 0-48-48 0L48 32zM528 80l0 256-96 0 0-256 96 0zM432 32l-48 0 0 48 0 256 0 48 48 0 96 0 48 0 0-48 0-256 0-48-48 0-96 0zM112 352l176 0 0 80-176 0 0-80zM64 304l0 48 0 80 0 48 48 0 176 0 48 0 0-48 0-80 0-48-48 0-176 0-48 0z"/></svg>

<svg xmlns="http://www.w3.org/2000/svg" viewBox="0 0 576 512"><!--! Font Awesome Pro 6.4.0 by @fontawesome - https://fontawesome.com License - https://fontawesome.com/license (Commercial License) Copyright 2023 Fonticons, Inc. --><path d="M272 80V208H48V80H272zM48 32H0V80 208v48H48 272h48V208 80 32H272 48zM528 80V336H432V80h96zM432 32H384V80 336v48h48 96 48V336 80 32H528 432zM112 352H288v80H112V352zM64 304v48 80 48h48H288h48V432 352 304H288 112 64z"/></svg>
